X:1
T:The Coming of the Lord
T:The Coming of the Lord
T:James Ramsey Murray
T:Anonymous, 1894
T:Public Domain Courtesy of the Cyber Hymnal™
T:Public Domain Courtesy of the Cyber Hymnal™
C:James Ramsey Murray
Z:Public Domain
Z:Courtesy of the Cyber Hymnal™
%%score ( 1 2 ) ( 3 4 )
L:1/8
Q:1/4=100
M:4/4
K:G
V:1 treble 
V:2 treble 
V:3 bass 
V:4 bass 
V:1
 [GB]2 [GB]>[GB] [GB]3 [DA] | [DG][DF][DE][DF] [DG]2 [FA]2 | [GB]2 [Fc]>[Fc] [Gd]3 [GB] | %3
w: 1.~Fast breaks the morn, all|glor- i- ous ap- pear- ing,|Il- lumes the sky with|
w: 2.~Soon shall the trump- et’s|gold- en, aw- ful sound- ing,|Wake sleep- ers all to|
w: 3.~Then, faith- ful hearts, watch|on, nor ev- er sleep- ing,|Soon shall He come to|
 [Ge][Gd][Fc][GB] [FA]4 | [GB]2 [GB]>[GB] [GB]3 [DA] | [DG][DF][DE][DF] [DG]2 [FA]2 | %6
w: bright- ening gold- en light;|Faint flash- es glow, His|com- ing ev- er near- ing,|
w: meet the com- ing Host;|Hark! ev- en now the|hills are all re- sound- ing|
w: greet His wait- ing bride;|O faith- ful souls! your|lov- ing watch- es keep- ing,|
 [GB]2 [=Fd]>[Fd] E[Ec][DB][EA] | [DG]2 [DF]2 [DG]4 ||"^Refrain" [Gd]2 [Gd]>[GB] [Gd]4 | %9
w: Lo! on the sky the morn dis-|pels the night.||
w: With joy- ful sounds to those who|love Him most.|Sol- diers of Christ!|
w: Lamps trimmed and burn- ing, watch what-|e’er be- tide!||
 [Ge]2 [Ge]>[Ec] [Ge]4 | [DG]2 [DG]>[DG] [GB] [FA]2 [EG] | [FA]>[FA] [EA][EB] [FA]4 | %12
w: |||
w: Sol- diers of light!|Watch for His com- ing a-|cross the gold- en height;|
w: |||
 [Gd]2 [Gd]>[GB] [Gd]4 | (dB)[Gc][Gd] !fermata![Ge]4 | [=FG]2 [FA][FB] [Ed] [Ec]2 [EA] | %15
w: |||
w: Sol- diers of Christ!|Sol- * diers of light!|Watch for His com- ing a-|
w: |||
 [DB]>[Dc] [DB][CA] [B,G]4 |] %16
w: |
w: cross the gol- den height.|
w: |
V:2
 x8 | x8 | x8 | x8 | x8 | x8 | x4 E x3 | x8 || x8 | x8 | x8 | x8 | x8 | G2 x6 | x8 | x8 |] %16
V:3
 [G,D]2 [G,D]>[G,D] [G,D]3 [B,,D] | [D,C][D,C][D,C][D,C] [G,B,]2 [D,D]2 | %2
 [G,D]2 [A,D]>[A,D] [B,D]3 [G,D] | C[B,D][A,D][G,D] [D,D]4 | [G,D]2 [G,D]>[G,D] [G,D]3 [B,,D] | %5
 [D,C][D,C][D,C][D,C] [G,B,]2 [D,D]2 | [G,D]2 [B,,D]>[B,,D] [C,C][A,,C][B,,G,][C,C] | %7
 [D,B,]2 [D,A,]2 [G,B,]4 || [G,B,]2 [G,B,]>G, [G,B,]4 | [C,C]2 [C,C]>[C,G,] [C,C]4 | %10
 [G,B,]2 [G,B,]>[G,B,] [D,D] [D,D]2 [D,D] | [D,D]>[D,D] [A,,^C][A,,C] [D,D]4 | %12
 [G,B,]2 [G,B,]>G, [G,B,]4 | ([G,B,][=F,D])[E,C][D,B,] !fermata![C,C]4 | %14
 [B,,G,]2 [B,,G,][B,,G,] [C,G,] [C,G,]2 [C,C] | [D,G,]>[D,G,] [D,G,][D,F,] G,4 |] %16
V:4
 x8 | x8 | x8 | C x7 | x8 | x8 | x8 | x8 || x7/2 G,/ x4 | x8 | x8 | x8 | x7/2 G,/ x4 | x8 | x8 | %15
 x4 G,4 |] %16

